X:1
T:Sechs Lieder von Goethe
T:Frühzeitiger Frühling
T:Moritz Hauptmann Text: Johann Wolfgang von Goethe
T:Frühzeitiger Frühling
T:Op. 25, No. 5
T:CPDL   —   Creative Commons Attribution Non Commercial 3.0
T:CPDL   —   Creative Commons Attribution Non Commercial 3.0
T:CPDL   —   Creative Commons Attribution Non Commercial 3.0
T:CPDL   —   Creative Commons Attribution Non Commercial 3.0
T:CPDL   —   Creative Commons Attribution Non Commercial 3.0
T:CPDL   —   Creative Commons Attribution Non Commercial 3.0
T:CPDL   —   Creative Commons Attribution Non Commercial 3.0
T:CPDL   —   Creative Commons Attribution Non Commercial 3.0
T:CPDL   —   Creative Commons Attribution Non Commercial 3.0
T:CPDL   —   Creative Commons Attribution Non Commercial 3.0
T:CPDL   —   Creative Commons Attribution Non Commercial 3.0
T:CPDL   —   Creative Commons Attribution Non Commercial 3.0
C:Moritz Hauptmann
Z:Johann Wolfgang von Goethe
Z:CPDL   —   Creative Commons Attribution Non Commercial 3.0
%%score [ 1 2 3 4 ]
L:1/8
Q:1/4=92
M:2/4
K:A
V:1 treble nm="Sopran"
V:2 treble nm="Alt"
V:3 treble-8 nm="Tenor"
V:4 bass nm="Bass"
V:1
"^Andante con moto"!mf! E2 AB | c2 A2 | c2 BA | E2 z2 | E2 AB | c2 A2 | c2 BA |!<(! e4- | e4-!<)! | %9
w: 1.  Ta- ge der|Won- ne,|kommt ihr so|bald?|Schenkt mir die|Son- ne,|Hü- gel und|Wald?|_|
w: 2. Bläu- li- che|Fri- sche!|Him- mel und|Höh'!|Gol- de- ne|Fi- sche|wim- meln im|See.|_|
 e4- | e2!>(! e2- | ed c!>)!B | A2 GA | B2 .F2 | G2 FE | A2 z2 | z4 |!p! E2 AB | %18
w: |* Sind|_ _ es die|Wie- sen, die|Wie- sen,|ist es das|Tal?||Sind es die|
w: |* Himm-|* * li- sche,|himm- li- sche|Lie- der|schal- len da-|rein.||himm- li- sche|
[Q:1/4=88]"^rallentando" c2 BB | E2 z2 :|[Q:1/4=92]"^a tempo"!mf! cB AG | F^E FG | AG FE | ^D2 z2 | %24
w: Wie- sen, das|Tal?|Lei- * se Be-|we- * gung _|bebt _ in der|Luft,|
w: Lie- der da-|rein.|||||
 B2 e^d |"^cresc." cB A z | c2 fe | ^dc B z | z4 | z4 |"^dol." B2 Be | e^d cB | B2!<(! BB!<)! | %33
w: lei- se Be-|we- * gung,|rei- zen- de|Re- * gung,|||lei- se Be-|we- * gung, _|rei- zen- de|
w: |||||||||
!>(! B2!>)! G2 | ^A2 .G.F | B2 z2 | G4 |"^cresc." A2 ^A2 | B2 c^d |!f! e2 ^dc | B2 !>!B2- | %41
w: Re- gung,|schlä- fern- der|Duft.|Mäch-|ti- ger|rüh- ret _|bald sich ein|Hauch, doch|
w: ||||||||
!p! Bc Bc | B3 B | B2 .B.B | B2 (!>!G2 |"^cresc." A2) ^AA | B2 c^d |!f! fe ^dc | B2 !>!B2- | %49
w: _ _ er ver-|lie- ret|gleich sich im|Strauch. Mäch-|* ti ger|rüh- ret _|bald _ sich ein|Hauch, doch|
w: ||||||||
!p! Bc Bc | B3 B | B2 .B.B | B2 |!>(! c2-!>)! | c2 GG | A2 .F2 | B2"^cresc." AB | c2 e2- | e2 ^AA | %59
w: _ _ er ver-|lie- ret|gleich sich im|Strauch.|A-|* ber zum|Bu- sen|kehrt er zu-|rück. Hel-|* fet, ihr|
w: ||||||||||
 B2 .G2 | F2 GF | E2"^dol." B2- | B2 GF | E2 E2 | A4 | G2 B2- |!<(! B2 E2!<)! | c3 B | %68
w: Mu- sen,|tra- gen das|Glück! hel-|* fet, ihr|Mu- sen,|hel-|fet, hel-|* fet,|hel- fet|
w: |||||||||
 BA"^dim." GF | E2 z2 | z4 | z4 | E2 AB | c2 .A2 | c2 BA | E2 z2 | E2 AB | c2 .A2 |!<(! c2 BA!<)! | %79
w: tra- * gen das|Glück!|||Sa- get seit|ges- tern|wie mir ge-|schah?|Lieb- li- che|Schwes- tern,|Lieb- chen ist|
w: |||||||||||
 e4- | e4- | e4- | e2!>(! e2- | ed c!>)!B |!p! A2 GA | B2 F2 | G2 FE | E2 z2 | z4 |!mf! c2 BA | %90
w: da!|_||* lieb-|* * li- che,|lieb- li- che|Schwes- tern,|Lieb- chen ist|da!||Sa- get, o|
w: |||||||||||
 e4- |!>(! ed c!>)!B | A2 GA | B2 .F2 | G2 FE | c2 z2 |!<(! A2 G!<)!A | B2 .F2 | G2 FE | A2 z2 | %100
w: sa-|* * get, _|sa- get seit|ges- tern|wie mir ge-|schah?|Lieb- li- che|Schwes- tern,|Lieb- chen ist|da,|
w: ||||||||||
"^dol." c2 BA | E4 | c2 B[Q:1/4=88]"^poco rallent."A | E4- | E2 A2- | .A.G d2- | d2 GG | A2 z2 | %108
w: Lieb- chen ist|da!|Lieb- chen ist|da,|_ Lieb-|* chen, Lieb-|* chen ist|da,|
w: ||||||||
 z4 | c2 BA | E4 | c2 BA | E2[Q:1/4=80]"^più lento" A2- | AG e2- | e2 GB | A2 z2 | z4 | z4 | %118
w: |Lieb- chen ist|da,|Lieb- chen ist|da, Lieb-|* chen, Lieb-|* chen ist|da,|||
w: ||||||||||
!p! E2 EE | !fermata!A4 |] %120
w: Lieb- chen ist|da!|
w: ||
V:2
 z4 | z4 | z4 | z4 | z4 | z4 | z4 | z4 |!f! G2 AB | E2 A2 | AG AB | E2 z2 |!mf! F2 FF | F2 .F2 | %14
w: ||||||||1. Reich- li- cher|flie- ßen|Bäch- * lein zu-|mal.|Sind es die|Wie- sen,|
w: ||||||||2.  Bun- tes Ge-|fie- der|rau- * schet im|Hain;|himm- li- sche|Lie- der|
 D2 DD | C2 z2 | z4 | z4 |!p! E2 DD | C2 z2 :| z4 | z4 | z4 |!mf! BA GF | E2 E2 |"^cresc." E2 AG | %26
w: ist es das|Tal?|||ist es das|Tal?||||Lei- * se Be-|we- gung|bebt in der|
w: schal- len da-|rein.|||schal- len da-|rein.|||||||
 F2 F2- | F2"^dim." BA |!p! AG FE | A4- | AG FE | A4 | GA!<(! GF!<)! |!>(! E2!>)! E2 | E2 .E.E | %35
w: Luft, rei-|* zen- de|Re- * gung, _|schlä-|* * fern- der|Duft,|rei- * zen- de|Re- gung,|schlä- fern- der|
w: |||||||||
 ^D2 z2 | E4 |"^cresc." F2 ^^F2 | G2 ^F2 |!f! E2 =GG | F4 |!p! =G2 ^GG | A2 G2 | F2 .E.^D | %44
w: Duft.|Mäch-|ti- ger|rüh- ret|bald sich ein|Hauch,|doch er ver-|lie- ret|gleich sich im|
w: |||||||||
 G2 (!>!E2 |"^cresc." F2) ^^FF | G2 ^F2 |!f! B,2 E=G | F4 |!p! =G2 ^GG | A2 G2 | GF .E.^D | G2 | %53
w: Strauch. Mäch-|* ti- ger|rüh- ret|bald sich ein|Hauch,|doch er ver-|lie- ret|gleich _ sich im|Strauch.|
w: |||||||||
!>(! G2-!>)! | G2 GG | C2 .F2 | G2"^cresc." FG | A2 =G2- | G2 =GG | G2 .E2 | ^D2 DD | E2 z2 | %62
w: A-|* ber zum|Bu- sen|kehrt er zu-|rück. Hel-|* fet, ihr|Mu- sen,|tra- gen das|Glück!|
w: |||||||||
"^dol." =D2 DD | C2 C2 | ^D4 | E2 z2 |!<(! =D3 D!<)! | C4- | C2"^dim." ^DD | B,2 !>!E2- | EF EF | %71
w: hel- fet, ihr|Mu- sen,|hel-|fet,|hel- fet,|tra-|* gen das|Glück, tra-|* * gen das|
w: |||||||||
 E4- | E2 z2 | z4 | z4 |!pp! C2 CC | C2 z2 | z4 | z4 | z4 |!mf! G2 AB | E2 A2 | AG AB | E2 z2 | %84
w: Glück!|_|||Lieb- chen ist|da!||||Sa- get seit|ges- tern|wie _ mir ge-|schah?|
w: |||||||||||||
 z4 |!p! F2 ED | D4 | C2 z2 |!mf! G2 AB | E2 A2 | AG AB | E2 z2 | z4 | F2 ED | D4 |!<(! C2 F!<)!E | %96
w: |Lieb- li- che|Schwes-|tern,|sa- get seit|ges- tern|wie _ mir ge-|schah?||wie mir ge-|schah?|Lieb- li- che|
w: ||||||||||||
 E2 E2 | F2 ED | D2 D2 |!p! C4- | C2 z2 |"^dol." E2 DC | C4 | E2 DC | C2 z2 | .D.D z2 | B,2 DD | %107
w: Schwes- tern,|Lieb- chen ist|da, ist|da,|_|Lieb- chen ist|da,|Lieb- chen ist|da,|Lieb- chen,|Lieb- chen ist|
w: |||||||||||
 C4- | C2 z2 | E2 DC | C4 | E2 DC | C2 z2 | D4- | D2 B,D | C2 z2 |!p! E2 EE | C4- | C2 C2 | %119
w: da,||Lieb- chen ist|da,|Lieb- chen ist|da,|Lieb-|* chen ist|da,|Lieb- chen ist|da,|_ ist|
w: ||||||||||||
 !fermata!A,4 |] %120
w: da!|
w: |
V:3
 z4 | z4 | z4 | z4 | z4 | z4 | z4 | z4 |!f! d2 cB | c2 e2 | d2 cB | c2 z2 |!mf! c2 BA | d2 .d2 | %14
w: ||||||||1. Reich- li- cher|flie- ßen|Bäch- lein zu-|mal.|Sind es die|Wie- sen,|
w: ||||||||2.  Bun- tes Ge-|fie- der|rau- schet im|Hain;|himm- li- sche|Lie- der|
 B2 AG | A2 z2 |!p! E2 AB | c2 A2 | E2 FG | A2 z2 :| z4 | z4 |!mf! cB AG | F2 BA | GF GB | %25
w: ist es das|Tal?|Sind es die|Wie- sen,|ist es das|Tal?|||Lei- * se Be-|we- gung, _|lei- * se Be-|
w: schal- len da-|rein.|himm- li- sche|Lie- der|schal- len da-|rein.||||||
"^cresc." e^d cB | AG A^A | B2 z2 |"^dol." B2 Be | e^d cB | B2 BB | B2 F2 | B2!<(! c^d!<)! | %33
w: we- * gung _|bebt _ in der|Luft,|lei- se Be-|we- * gung, _|rei- zen- de|Re- gung,|rei- zen- de|
w: ||||||||
!>(! e2 ^d!>)!c | c2 .B.^A | B2 z2 | (B2 e2) |"^cresc." ^d2 c2 | B2 A2 |!f! G2 ^AA | B2 !>!B2- | %41
w: Re- gung, _|schlä- fern- der|Duft.|Mäch- *|ti- ger|rüh- ret|bald sich ein|Hauch, doch|
w: ||||||||
!p! Bc Bc | B3 B | B2 .B.B | B2 (!>!e2 |"^cresc." ^d2) cc | B2 A2 |!f! G2 G^A | B2 !>!B2- | %49
w: _ _ er ver-|lie- ret|gleich sich im|Strauch. Mäch-|* ti- ger|rüh- ret|bald sich ein|Hauch, doch|
w: ||||||||
!p! Bc Bc | B3 B | B2 .B.B | B2 |!>(! G2-!>)! | G2 Gc | c2 .A2 | =d2"^cresc." dd | c2 c2- | c2 ee | %59
w: _ _ er ver-|lie- ret|gleich sich im|Strauch.|A-|* ber zum|Bu- sen|kehrt er zu-|rück. Hel-|* fet, ihr|
w: ||||||||||
 e2 .B2 | A2 BA | G2 z2 | z2"^dol." B2- | B2 AG | (F2 B2) | B2 z2 |!<(! G2 B2!<)! | (B2 A)G | %68
w: Mu- sen,|tra- gen das|Glück!|hel-|* fet, ihr|Mu- *|sen,|hel- fet,|hel- * fet|
w: |||||||||
 F2"^dim." BA | G2 z2 | !>!d3 d | (c2 B)A | GF ED | C2 z2 | z4 |!pp! E2 EE | E2 z2 | z4 | z4 | %79
w: tra- gen das|Glück,|hel- fet,|hel- * fet|tra- * gen das|Glück!||Lieb- chen ist|da!|||
w: |||||||||||
!mf! c2 BA | d4 | c2 z2 | d4 | c2 z2 | z4 | z4 | z4 |!mf! c2 BA | e4- | e2 e2 | d2 cB | c2 e2- | %92
w: Lieb- li- che|Schwes-|tern,|sa-|get,||||sa- get, o|sa-|* get,|wie mir ge-|schah? sa-|
w: |||||||||||||
 e2 dc | F2 .B2 | B2 AG | A2 z2 |!<(! A2 d!<)!c | F2 .B2 | B2 AG | A2 z2 | z4 |"^dol." c2 BA | E4 | %103
w: * get seit|ges- tern|wie mir ge-|schah?|Lieb- li- che|Schwes- tern,|Lieb- chen ist|da!||Lieb- chen ist|da,|
w: |||||||||||
 c2 BA | E2 z2 | .B.B z2 | G2 BB | A2 z2 | c2 BA | E4 | c2 BA | E4- | E2 z2 | B3 A | GB dG | %115
w: Lieb- chen ist|da,|Lieb- chen,|Lieb- chen ist|da,|Lieb- chen ist|da,|Lieb- chen ist|da,|_|Lieb- chen,|Lieb- * chen ist|
w: ||||||||||||
 A2 z2 |!p! c2 cc | A4- | A2 E2 | !fermata!C4 |] %120
w: da,|Lieb- chen ist|da,|_ ist|da!|
w: |||||
V:4
 z4 | z4 | z4 | z4 | z4 | z4 | z4 | z4 |!f! E,2 F,G, | A,2 C2 | B,2 A,G, | A,2 z2 |!mf! F,2 F,F, | %13
w: |||||||||||||
w: |||||||||||||
 D,2 .D,2 | E,2 E,E, |!p! A,,4- | A,,4- | A,,4- | A,,4- | A,,2 z2 :| z4 | z4 | z4 | %23
w: |ist es das|Tal?|_|||||||
w: |schal- len da-|rein.|_|||||||
!mf! B,,2 B,,B,, | E,^D, C,B,, |"^cresc." A,,2 C,C, | F,E, ^D,C, | B,,C,"^dim." ^D,B,, | %28
w: Lei- se Be-|we- * gung, _|lei- se Be-|we- * gung _|bebt _ in der|
w: |||||
!p! E,2 G,2 | F,2 ^D,2 | E,2 (G,2 | F,2) E,^D, | E,F,!<(! E,^D,!<)! |!>(! C,2!>)! C,2 | %34
w: Luft, bebt|in der|Luft, rei-|* zen- de,|rei- * zen- de|Re- gung,|
w: ||||||
 F,2 .F,.F, | B,,2 z2 | E,2 E,E, |"^cresc." E,4- | E,2 E,2 |!f! E,2 E,E, | ^D,4 |!p! E,2 ^E,E, | %42
w: schlä- fern- der|Duft.|Mäch- ti- ger|rüh-|* ret|bald sich ein|Hauch,|doch er ver-|
w: ||||||||
 F,2 E,2 | ^D,2 .C,.B,, | E,4 |"^cresc." !>!E,2 E,E, | E,3 E, |!f! E,2 E,E, | ^D,4 |!p! E,2 ^E,E, | %50
w: lie- ret|gleich sich im|Strauch.|Mäch- ti- ger|rüh- ret|bald sich ein|Hauch,|doch er ver-|
w: ||||||||
 F,2 E,2 | E,^D, .C,.B,, | E,2 |!>(! ^E,2-!>)! | E,2 ^E,E, | F,2 .F,2 | E,2"^cresc." E,E, | %57
w: lie- ret|gleich _ sich im|Strauch.|A-|* ber zum|Bu- sen|kehrt er zu-|
w: |||||||
 A,2 ^A,2- | A,2 CC | B,2 .B,2 | B,,2 B,,B,, | E,2 z2 |"^dol." E,4- | E,4- | E,2 E,2 | E,4- | %66
w: rück. Hel-|* fet, ihr|Mu- sen,|tra- gen das|Glück!|hel-||* fet|tra-|
w: |||||||||
!<(! E,4-!<)! | E,4 | E,2"^dim." E,2 | E,2 z2 | E,2 E,2 | E,4- | E,D, C,B,, | A,,2 z2 | z4 | %75
w: ||gen das|Glück,|hel- fet|tra-|* * gen das|Glück!||
w: |||||||||
!pp! A,,2 A,,A,, | A,,2 z2 | z4 | z4 | z4 |!mf! E,2 F,G, | A,2 C2 | B,2 A,G, | A,2 z2 | z4 | %85
w: Lieb- chen ist|da!||||Sa- get seit|ges- tern|wie mir ge-|schah?||
w: ||||||||||
!p! D,2 C,B,, | E,4 | A,2 z2 |!mf! E,2 F,G, | A,2 C2 | B,2 A,G, | A,2 z2 | C2 B,A, | D,2 .D,2 | %94
w: Lieb- li- che|Schwes-|tern,|sa- get seit|ges- tern|wie mir ge-|schah?|sa- get seit|ges- tern|
w: |||||||||
 E,2 E,E, | A,2 z2 |!<(! C,2 B,,!<)!A,, | D,2 .D,2 | E,2 E,E, |!p! A,,4- | A,,4- | A,,4- | A,,4- | %103
w: wie mir ge-|schah?|Lieb- li- che|Schwes- tern,|Lieb- chen ist|da!|_|||
w: |||||||||
 A,,4- | A,,2 z2 | .E,.E, z2 | E,2 E,E, | A,,4- | A,,4- | A,,4- | A,,4- | A,,4- | A,,2 z2 | E,4- | %114
w: ||Lieb- chen,|Lieb- chen ist|da,|_|||||Lieb-|
w: |||||||||||
 E,2 E,E, | A,2 z2 | z4 |!p! A,,2 A,,A,, | A,,2 A,,2 | !fermata!A,,4 |] %120
w: * chen ist|da,||Lieb- chen ist|da, ist|da!|
w: ||||||

